X:161
M:4/4
L:1/8
K:D
ddcA BFAF | DFAF G/B/G F/A/F | Eeed cABc | d2dc d2 :| 
d2 | Acec Acec | Adfd Adfd | eeee eABc | ddcB A2Bc | 
ddcA BFAF | DFAF G/B/G F/A/F | Eeed cABc | d2dc d2 :| 

